assets/calendar-x/calendar-x-fill.svg

<svg id="Raw" xmlns="http://www.w3.org/2000/svg" viewBox="0 0 256 256">
  <rect width="256" height="256" fill="none"/>
  <path d="M207.99414,31.9971h-24v-8a8,8,0,1,0-16,0v8h-80v-8a8,8,0,0,0-16,0v8h-24a16.01583,16.01583,0,0,0-16,16v160a16.01582,16.01582,0,0,0,16,16h160a16.01581,16.01581,0,0,0,16-16v-160A16.01582,16.01582,0,0,0,207.99414,31.9971ZM157.65039,170.34085a7.99915,7.99915,0,1,1-11.3125,11.3125L127.99414,163.3096l-18.34375,18.34375a7.99915,7.99915,0,0,1-11.3125-11.3125l18.34375-18.34375L98.33789,133.65335a7.99915,7.99915,0,1,1,11.3125-11.3125l18.34375,18.34375,18.34375-18.34375a7.99915,7.99915,0,1,1,11.3125,11.3125L139.30664,151.9971ZM207.99414,79.9971h-160v-32h24v8a8,8,0,0,0,16,0v-8h80v8a8,8,0,1,0,16,0v-8h24Z"/>
</svg>

<svg xmlns="http://www.w3.org/2000/svg" viewBox="0 0 256 256"><rect width="256" height="256" fill="none"/><path d="M208,32H184V24a8,8,0,0,0-16,0v8H88V24a8,8,0,0,0-16,0v8H48A16,16,0,0,0,32,48V208a16,16,0,0,0,16,16H208a16,16,0,0,0,16-16V48A16,16,0,0,0,208,32ZM157.66,170.34a8,8,0,0,1-11.32,11.32L128,163.31l-18.34,18.35a8,8,0,0,1-11.32-11.32L116.69,152,98.34,133.66a8,8,0,0,1,11.32-11.32L128,140.69l18.34-18.35a8,8,0,0,1,11.32,11.32L139.31,152ZM208,80H48V48H72v8a8,8,0,0,0,16,0V48h80v8a8,8,0,0,0,16,0V48h24Z"/></svg>
